X:1
T:English Suite no.3 in G minor, BWV 808
T:English Suite no.3 in G minor
T:J.S. Bach (1685-1750)
T:BWV 808
C:J.S. Bach (1685-1750)
%%score { ( 1 2 5 8 ) | ( 3 4 6 7 ) }
L:1/8
Q:3/8=76
M:3/8
K:Bb
V:1 treble nm="Piano" snm="Pno."
V:2 treble 
V:5 treble 
V:8 treble 
V:3 bass 
V:4 bass 
V:6 bass 
V:7 bass 
V:1
"^Allegro"!p! z"^5""_PRELUDE" d"^5"d |"^3" B"_1""^3"B"_1""^3"B |"_2""^2" A/G/"_4"A/B/"_4"A/B/ | %3
 G/"^2"^F/"^1"G/"_cresc."A/B/"^1"c/ |"^3" d/"^2"c/"^1"d/=e/^f/"^1"d/ |"^3" g/^f/"^1"g/a/b/g/ | %6
!f! a/!>(!g/"^4"^f/=e/d/c/!>)! |!mf!"^2" .B"^5""^1"gg |"^1""^3" (e/f/e/d/"^1"c/B/ | .A)ff | %10
"^3" (d/e/d/c/"^1"B/"^3"A/ | .G)"^4"ee |"^3" (c/"^5"d/"^4"c/B/A/"^1"G/ |"^2" .^F)dd | %14
!>(! [DB]"_2""^4"B"_1""^4"B!>)! |!p!"^2""^5" B3 | A3- | A3 |"^1""^5" G3- |"_1" G3 |"^1""^4" ^F3 | %21
"^3""_cresc." MG3 | A"^2""^5""^1"dd |"^5""^3" =fff | f=ee |"^5""^3" ggg | g^ff |!f! aaa | %28
"^5""^3""^1" (ag=f) |"_dimin.""^1""^4""^5" ([ce][Bd][Ac]) |"^1""^2""^4" c>d"^1""^2""^4"B- | %31
 B/"^3"A<"^4""^2"(PAG/) |"^1" (G/A/B/G/^F/"^3"G/ | D/"^2"G/"^4"B/"^1"G/"^2"^c/G/ | .d)aa | fdd | %36
"^3" (d/=B/c/=e/f/"^1"c/) |"^2" (_B/c/d/B/_e/B/) | A/"^2"c/d/e/f/d/ | =Bcc | %40
"^1""_cresc." c/d/e/c/^f/c/ | a/e/d/c/"^3"B/A/ | Bdd | BBB |!f!"^1""_1" A/a/d/a/"^2""_1"^c/"^4"g/ | %45
"_1" f/!>(!a/"_2"d/a/"_3"^c/g/!>)! |!p!"^3""_1" f/"^1"d/"^2"=B/f/A/f/ | G/!<(!f/A/f/=B/f/!<)! | %48
!f! =e/g/"^2""_2"c/g/"^1""_1"=B/"^4"g/ |"_1" e/g/"_2"!>(!c/g/"_3"=B/f/!>)! | %50
!p! e/"^1"c/"^2"A/"^5"e/G/e/ | F/e/G/e/A/"^4"e/ | .d"_cresc."ff | ddd | %54
!f!"^1""_1" c/c'/"_1"f/c'/=e/b/ |"_1" a/c'/"_2"!>(!f/c'/"_3"=e/b/!>)! | %56
!p!"_1" a/"^1"f/"^2"d/"^5"_a/c/a/ | B/_a/!<(!c/a/d/"^4"a/!<)! |!f! g/b/e/b/d/"^4"_a/ | %59
"_1" g/b/"_2"!>(!e/b/"_3"d/_a/!>)! |!p!"_1" g/e/c/"^5"g/B/g/ | A/g/B/g/c/g/ | %62
"_cresc." ^f"^5""^2"(g=f |"^5""^2" ed"^3"c) |!f! ([Bf]"^4""^2"[Ae]"^3""^2"[Bd]-) | %65
 d/g<!>(!(PcB/)!>)! |!p! .Bff |"^4" d"_2"dd |"_1" c/B/c/d/c/d/ | B/A/B/"^1""_cresc."c/d/e/ | %70
 f/"^2"=e/"^1"f/g/a/f/ |"^3" b/a/b/c'/a/b/ |!f!"^5" c'/!>(!b/a/g/f/"^2"e/!>)! |!mf! .d"^5"bb | %74
"^4" (g/a/g/f/e/d/ | .c)aa |"^4" (f/g/f/e/d/c/ | .B)gg |"^2""^4" (e/f/e/d/"^1"c/B/ | .A)ff | %80
!>(! [Fd]"^5"dd!>)! |!p!"^2""^5" d3 |"^1""^5" c3- | c3 | B3- | B3 | A3 |"^3" PB3 | c"_cresc."cc | %89
"^5""^2""^1" fff |!f! [Bf][Be][Be] |"^5""^2""^1" ggg | [cg][cf][cf] |"^1""^5""^4" eee | %94
 e"^3"d"^2"B |"^4" (e"_dimin.""^3"d"^3"c) |"^3""^4" c>"^5""_2"dB- | B/c<"^4"(PAB/) | %98
"^3""^2""^1" (B/!p!c/"_1"d/B/A/B/ |"^1" F/"^2"!<(!B/d/B/"^4"=e/"^1"B/!<)! |!mf!"^2" .f)c'c' | %101
 af"^4"f |!p! (_e/d/e/c/"^2"=B/c/ |!<(! G/"^2"c/e/"^1"c/"^4"^f/c/!<)! |!mf! g)d"^3"d | BG"^2"G | %106
 .=Faa | fd"^3"d | ^c/=B/c/d/B/c/ |"_2" d/^c/"_1"d/=e/c/d/ |"_1" =eA z | %111
"^3""_cresc." D/^C/"^1"D/=E/F/"^1"G/ | A/G/A/=B/^c/"^1"A/ |"^3" d/^c/"^1"d/=e/f/"^1"g/ | %114
!f! a/!>(!_b/"_1"a/g/"^2""_5"f/=e/!>)! |!p! .f"^3"[fa][fa] | (b/c'/b/a/g/f/ | .=e)"^3"gg | %118
 (a/"_cresc."b/a/g/f/=e/) |"^2" d/c/d/=e/f/d/ |!f! ggg |"^2""^3" ^c=e"_dimin."e |"^2""^4" G>AF- | %123
 F/=E<"^3"(PED/) |"^3" (D/!p!=E/F/D/^C/D/ | A,/"^2"D/"^4"F/"^1"D/"^2"^G/D/ | .A)=ee | cAA | %128
"^4" A/^F/"^1"G/"^3"=B/c/G/ |"^2" =F/G/A/F/_B/F/ | =E/"^2"G/A/B/c/A/ | ^FGG | %132
"^1""_cresc." G/A/B/G/^c/G/ | =e/B/A/G/"^3"=F/=E/ |"^1" F/G/_A/F/=B/F/ | d/_A/G/F/"^3"_E/D/ | %136
!f! .Egg | ee"^5"e |"^4" B/"^5"d/G/B/"^2"^F/"^4"c/ | B/d/!>(!G/d/^F/c/!>)! | %140
!p!"^3" B/"^1"G/"^2"=E/B/D/B/ | C/!<(!B/D/B/=E/B/!<)! |!f!"^3" _A/c/F/c/=E/"^4"B/ | %143
 _A/c/!>(!F/c/=E/B/!>)! |!p! _A/F/D/"^5"A/C/A/ | B,/_A/C/A/D/"^4"A/ | .G"_cresc."bb | ggg | %148
!f! d/"^5"f/B/f/=A/e/ | d/f/!>(!B/f/A/e/!>)! |!p! d/B/G/"^5"_d/F/d/ |!<(! E/_d/F/d/G/"^4"d/!<)! | %152
!f! c/e/_A/e/G/_d/ | c/e/!>(!_A/e/G/_d/!>)! |!p! c/_A/F/"^5"c/E/c/ | D/c/E/c/F/c/ | %156
 =B"^2""^5""_cresc."(c_B |"^2""^5" _AG"^3"F) |!f! ([EB]"^2""^4"[D_A]"^3"[EG]-) | %159
 G/c<"^3"!>(!(PFE/)!>)! | .E!p!"^3"BB | !trill(!TB3- | !trill)!B3- | B/_A/B/_d/c/B/ | _A/B/AA | %165
 !trill(!T_A3- | !trill)!A3- | A/G/_A/c/B/A/ | G/=A/4=B/4c"^3"c | !trill(!Tc3- | !trill)!c3- | %171
 c/_B/"^1"c/e/d/c/ |!f!"^3" B/A/G/e/"^2"^F/"^1"G/ |"^3" A/G/"_dimin."=F/d/=E/F/ | %174
"_poco   a   poco" G/F/"^1"_E/c/D/=E/ | ^F/=E/D/c/"^1"E/F/ | G/^F/=E/"^5"B/"^2"^C/"^1"D/ | %177
"^3" =E/"^1"D/^C/A/"^2"E/^F/ | G/^F/=E/D/E/F/ |"_cresc." .G"_poco"G,G, |"_a   poco" ^F,D"^3"D | %181
 B,G"^3"G | ^Fdd | B/A/G/A/B/"^1"c/ | d/c/d/=e/^f/"^1"d/ |"^3" g/^f/"^1"g/a/b/g/ | %186
!f! a/!>(!g/"^4"^f/=e/d/c/!>)! |!mf! .Bgg |"^3" (e/f/e/d/c/"^2"B/ | .A)ff | %190
"^3" (d/e/d/"^1"c/"^3"B/A/ | .G)ee |"^3" (c/d/c/B/A/G/ | .^F)dd |!>(! [DB]BB!>)! |!p!"^5""^2" B3 | %196
 A3- | A3 | G3- | G3 |"^4""^1" ^F3 |"^3""_cresc." MG3 |"_poco   a   poco" Add | =fff | f=ee | ggg | %206
 g^ff |!f! aaa |"^3" (ag"_dimin."=f) |"^5""^4" ([ce]dc) |"^4""^2" c>d"^4""^2"B- | B/"^3"A<(PAG/) | %212
 G2 z |][M:4/4]!mf!"_ALLEMANDE"[Q:1/4=92]"^Allegro moderato" B/ |"^2" B2- B/g/^f/g/ c2- c/a/g/a/ | %215
"^2" d/G/B/"^1"d/"^3" g/b/a/g/ ^f/g/"^5"a/"^2"_e/ d/"^4"c/B/A/ | %216
!p!"^4" B2- B/"^2"B/c/e/"^1 4" (A2- A/)"^2"A/B/d/ | %217
"^2" G2- G/G/A/c/"^1" ^F/"^2"A/"_cresc."c/d/ G/B/d/e/ | %218
 A/c/d/^f/"^1" B/d/"^3"f/g/!f! a/g/f/=e/ d/"^3"_e/Pe/d/4e/4 | =f4"^1" x4 | %220
"^2" e/c/e/g/ c'/_b/=a/"^1"g/"^3" ^f/g/a/e/ d/"^4"c/B/A/ |"^5" B4"^5"!>(! A4-!>)! | %222
 A/!p!"^1"D/"^2"F/"^1"B/"^3" d/f/=e/d/ ^c/d/"^5"e/"^2"_B/ A/"^4"G/F/=E/ | %223
"_cresc." ^F/G/A/_E/ D/"^4"C/[I:staff +1]B,/A,/ B,/C/D/_A,/ G,/"_3"F,/E,/D,/ | %224
!f![I:staff -1] z2 z ^c"^1" d/=e/f/b/"^3""^2"!>(! Pe>d |"^5" (d4!>)!!p!"^3""^2" d3) z/ ::!mf! A/ | %227
 A/a/^f/d/ A/^F/"^1"G/A/ =B/A/G/"^4""^2"c/"^1" d/"^3"e/=f/g/ | %228
 Ped/c/"^4" Mg>g"^5" g/"^2"B/A/"^4"c/ B/A/G/"^4"=e/ | f>"^3"_e d/c/"^4"B/A/ G/F/G/B/"^1" c/d/e/c/ | %230
"^4" B/A/G/F/ f>A B/e/d/c/!>(! Tc>B!>)! | %231
"^3"!p! B2-"_cresc." B/d/c/"_poco   a   poco"d/"^2" E/(D/"^2 1"C-) C/A/B/c/ | %232
 ^F/d/A/F/ D/^C/D/=E/ F/E/D/"^4""^2"G/"^1" A/"^3"B/=c/d/ | %233
 B/A/G/A/ B/"^1"c/d/_e/ f"^1"B!f!"^3" M_a>(b |"^2 5" g4)"^4 5""^1" f2-"^2" f/"^4"e/"^5"d/c/ | %235
 =B2"^4" Pe>e e/d/"_dim."c/_B/"^2""^4" A/"^5"B/c/G/ | %236
 ^F/"^1"G/!p!"^3"A MA>A A/G/F/G/"^4""_cresc." c>c | c2 z!f! ^F G/A/B/e/"^2""^3"!>(! TA>G | %238
"^5" x2 C/!>)!D/E!p! [DG]3 z/ :|[M:3/2]"_COURANTE"[Q:1/2=84]"^Allegro vivace"!mf!"^4" D | %240
"^4" D4- D3"^2" D"^4" GA^FG | A4 D3"^1" D"^3" ABGA | %242
 z A"^1"G"^2"^F"^3""_cresc." GDE"^4"B Ac"^2"F"^4"G | P^F2 =ED!f!"^4" d3 _e!>(! dcBA!>)! | %244
"^3" BAGA!<(! B"^1"cde Te3 d/e/!<)! |!f! f3"_dim." e dc"^3"BA BcF_A | %246
!p! G2!<(! g2- g!>(!fed c"^3"deB!<)!!>)! | A"^2"cde"^5""_cresc." f"^3"efg fedc | %248
!f! d2 B2"^5""^4""^2" !arpeggio!b3"^5" a"^3" gab"^1"=f |"^3" Pe3 d"_dim." c"^4"de"^3"B ABcG | %250
!p!"^3" ^FGA_E D=E F2"^1" G2 BA | B2"_cresc." G2"^4" g3 _a gfed |!f!"^3" e6"^4""^3" g2 =a4- | %253
 a2"^5" gf g8- |"^5""^4""^1" (g3 a) Pf3 =e"^3""^2" Te3 d |!p!"^5" d6- d4 z ::!mf!"^4" a | %257
"^4" a4 ^f2 f2 g3 a | b3 a (gab=f)"^4" (f=edc) | c'3 g a=ef"^5"b Tg3!>(! f/g/ | %260
 f4-!>)!!p! f(g_ag"^1" f"^3"_ede) | (c"^3"=BAG)"^3" (cB"^1"ce) (defd) | %262
 (fedc d=e"^1""_cresc."fg) Tg3 f/g/ |!f!!>(! _a3 =B !turn!c3 d!>)! Td3 c | %264
"^1" c4-!mf! c(ded c"^3"_B=AB) |"^4" (BAGF) (G"^1"ABc)!>(! Tc3 B/c/!>)! |!p!"^5" !>!d8 z"^2" GAB | %267
 !>!c8- ccBA |"^4" B4- B3"^5" B"_s.""^4""_2" BAB"^3"G |"^2""^1" P^F6 (G"^5"A G=FED) | %270
"^1""^5" E4"^2" C"^4""_cresc."E"^1"G"^4"B A"^2"^F"^3"GA | %271
 D^FAc"^4""^1"!>(! PB3 A"^2""^3" TA3 G!>)! |!p!"^5" G6- G4 z :| %273
[M:3/4]"_SARABANDE"[Q:1/4=66]"^Andante sostenuto"!f!"^4" (B!>(!A) A3!>)! c/B/ | %274
!>(! c"^4"A!>)!"^3" ^F3 A/G/ |!>(! A"^3"E!>)!"^5"!>(! (E2 PD>)C!>)! |!p!"^2""^3" B,3 (A, G,2) | %277
"^2""^4"!<(! D=F/=E/!<)!"^1""^5" F3"^2" D |"^3""^1"!<(! =EG/"^3"^F/!<)!"_cresc." G3 A | %279
!<(! ^F/G/F/G/!<)!"^4""^1"!>(! PG3 F/G/!>)! |!p! A2"_3" A4 :: %281
!mf!"^2"!<(! Bd!<)!!>(! !arpeggio!f3"^3" B | _A/!>)!F/G G4 | %283
"^2"!<(! d"^3"f!<)! (_a2 g)!>(!f/a/4g/4 |"^3""^1" e3"^5" d"^4" c2!>)! |!f!"^5""^4""^2" e6- | e6- | %287
 e6- | e2!p! e4 |"^5"!mf! _d"^4"B- B3"_dim." B/_A/ |"^5" B"^4"G- G3 G/F/ | %291
"^5" G"^4"=E- E3"^5""_cresc." B/A/ |"^3" A/c/4B/4A/4B/4c/-!<(! c2 x2!<)! |!f! G6- | G6- | %295
"^5""_1""_2" G/"^4"!>(!A/B/G/ ^F/G/^C/!>)!!turn!B/"^2""^4" G3/2A/4"^4"F/4 |"^3""^5" G2!p! G4 :| %297
[M:3/4]"^Same Sarabande with its embellishments."!f!"^4"!>(! (!arpeggio!BA)!>)! MA2- A/4c/4B/4A/4c/4B/4d/4c/4 | %298
"^5"!>(! cB/"^5"A/!>)!"^4" (G2 P^F3/2)A/4G/4 | %299
!>(! (G/A/)E!>)!"^4" E-"_dim."E/4D/4C/4D/4 TD3/2E/4"^3"C/4 |"^2"!>(! TB,3 A,"^2"{A,} G,2!>)! | %301
"^2""^3" D!<(!=F/=E/!<)!"_1"{E} MF3 D |"_1" F/"_cresc."=E/G/^F/"^3"{F} MG3 A | %303
{G} ^F/G/F/G/!mf!"^4""^1"!>(! TG3 (F/G/)!>)! |!p!"^5" B<"^4"A"^5""^2" A4 :: %305
!mf!"^2"!<(! Bd"^5""^4" !arpeggio!f2-!<)!!>(! (f/4g/4)f/4e/4d/4c/4"^3"B/8_A/8B/8G/8!>)! | %306
!p!"^4" (_A/F/G){A} G4 |"^4"!<(! d/c/=B/"^1"d/4!<)!f/4!>(! (_a2 Pg)f/4g/8a/8g/4f/4!>)! | %308
"^2"{f} Pe3"^5" d{d} c2 |!f! e6- | e6- | e6- | e2!p! e4 | %313
!mf!"^2" _d"^1"_c/"^4"B/- B2 G/"_dim."_A/PA/G/4A/4 |"^4" B/_A/4"^1"G/4"^5"A/G/4F/4 G2 GF/=A/4G/4 | %315
"^2" G/4A/4B/4A/4G/4F/4"^3"=E/4F/8G/8{D} ^C2- C/E/G/B/4A/4 | %316
"^3" A/c/4B/4A/4B/4c/-"^4""^3""_cresc." c2"^2" P^F3/2=E/4"^4"F/4 |!f! G6- | G6- | %319
 G/"^4"(A/B/"_dim."G/ ^F/G/^C/B/ PG3/2A/4"^4"F/4) | G2!p! !arpeggio!G4 :| %321
[M:2/2]"_GAVOTTE I"[Q:1/2=100]"^Molto allegro"!f!"^2" (g2 ba | b2 gd a2 ^fd) | %323
!>(! g4!>)!!p!"^4" (e2 cA |"^5" d2 BG c!<(!A d2)!<)! |!>(! (B2 AG)!>)!!f!"^2" (g2 ba | %326
 b2 gd a2 ^fd) |"^5"!>(! (g3 =f!>)!!p! edc"^2"B) |"^4" (ab)(de) f"^1"c"^4" d2 |1{c} B4 :|2{c} B4 |: %331
!mf!"^2" (d2 fe | f2 dB g2"^2" eB) | f4!p!"^4" (baga | b"^3"g=ec baga | ba"_cresc."gf)"^4" (gf=ef | %336
"^5" g=e^cA"^4" gfef | gf=ed) .a2"^2" .a2 | !trill(!PTa8- | (a!<(!fga) (b!<)!agf) | %340
"^4" (=ed^c"^1"d)!>(! (gfef)!>)! |!<(! d4!<)!"^2" (d2 f_e |!<(! f2 d=B!<)!!f!"^4"!>(! _a2 fd)!>)! | %343
"^4" e2 cG g2 ec |"^4" d2 _BG g2 dB |"^4" c2"^2""_dim." A"^1"^F"^5" e2"^3" c"^1"A | %346
"^5" d2 BG cABG |"^4"!<(! AD=E^F"^1" GABG!<)! | %348
"^4""^5""^_"!>(! e"^1""^3""^_"c"^4"d"^2"B cA"^4"BG!>)! |!p! A2 D2"^3" (G2 BA | %350
 B^FGD"_cresc." =B=FGD | c)(DE"^1"G"^3" cGdG | e=BcG =e_BcG | f)(GA"^1"c"^3" ^fcgc | %354
!f! a=e^fd bfgd) | c'ad"^5"c'"^3" bag"^4"^f |!>(! gdec"^3" B2 (PAG)!>)! | G4 :| %358
[K:G][M:2/2]"_GAVOTTE II"[Q:1/4=200]"^L'istesso tempo"!p!"^3" (D2 EC | %359
"^1"!<(! D2"^3" GA!<)! B2!>(! AF | G2!>)! D2) (G2 A!<(!F |"^1" GAB!<)!c!>(! dBcA!>)! | B4) :: %363
!mf!"^4" (d2 ec | d2!>(! cA"^3" BG"^4"AF | G2!>)! D2)!p! (EDGD | EDGD ED A2 | %367
!pp!"^4" A4)"^2""_cresc." A2 B"_poco"G | c2 BG ecdB |"^4" cBAG AB"_dim."cB | AG"^3"FG AGFE | %371
 D4!p!"^3" (D2 EC |"^1"!<(! D2"^3" GA!<)! B2!>(! AF | G2!>)! D2)!pp! BFGD | dFGD BFGD- | %375
 !wedge![DG]4 :|[K:Bb][M:12/8]"_GIGUE"[Q:3/8=144]"^Molto allegro"!mf!"^2" d | %377
 (edc"^3" BAG"^3" ^FAD"^3" CB,A,) | (B,DG A,!<(!G^F"^1" G"^3"B"^1"A!<)! B!mf!d"^1"c | %379
 d3-) d=ef"^2" e3- efg | agf gf=e fga d3- |"_dim." d"^3"c_B c3- c2 d B2 c | %382
"_cresc." A2"^3" B c2!f!"^5""^2" d"^3""^1" B2 c d3- |"_1" d2"^4" =e ^f3"^5""^2" g3 a3- | %384
"_2" a3"^5" g3- g=f=e"^5" f3- | f3 _e3- e"^5"dc"_dim." d3- | d3"^5""^4" c3- c(BA) B3 | %387
!p!"_3" z!<(! A2 z AG!<)! A3 z =EG |"^1""^3" F3-"_cresc." FGA G3- G"^1""^3"AB | %389
!f!"^1" Adf"^1" G"^4"g=e fag a3 |!<(! (A^c=B c=e!<)!d"_dim." e3)!<(! (=EGF | %391
 G"^5"BA!<)! B3)"^2"!<(! ^C"^3"=E"^1"D"^2" EGF!<)! |"^1""_cresc." GBA BAG"^4" ^c_BA dAG | %393
!>(! =eAG"^2" FG=E!>)!"^3""_cresc." FED GED | A=ED!>(! BED"^2" ^CDE!>)! A, z!f!"^2" a | %395
 bag"^3" f=ed"^3" ^ceA"^3" GF=E | FAd =Ed^c dA^F[I:staff +1] D2 ::"_4" A, | %398
!mf! (^F,"_1"G,A, B,"_1"CD!<(![I:staff -1] EC"^2"G ABc)!<)! | %399
 (BG!>(!D c"^1"=E^F GE"^4"=F E!>)!!mf!"^2"^C"^1"D |"_cresc." A3-) AGF G3- GF=E | %401
 D=EF EAG FED"^4" !>!B3- | BAG"^4" AG^F"^1" G2 _e =F2 d |"^2" z6"^1" z3"^1" z!f! z"^3""_1" G | %404
 ^F"^1"GA B"^1"cd ec"^2"g ab"_1"c' | bgd c'"_2"=e^f gd_e"_2""^4" =f"^2"c"^1"d | %406
"^2" e3 T=e3 fc"^3"d!>(! _e"^2"B"^3"c | dA"^3"B"^5" c"^2"G"^1"A!>)!"_dim." B2 g _A2 f | %408
 G2"^4" e F2"^5" d"^1""^2""^_" E"^1""^2""^_"F"^3"G DEC | %409
"^2" =B,"^1"C"_cresc."D E"^1"FG _AF"^3"c"^1" d"^3"ef | %410
!f! gec"^5" f=A"_dim."=B ecA"^5" d"^2"^F"^1"G |"^5" cA^F"^5" BDE A=FD"^5" G"^2"B,!p!"^1"C | %412
 D3-"_cresc." D=E^F"^1" GAB"^1" cd_e |!f!"^1" d2 b"^3" edc B2 g"^1""_dim." c"^3"B_A | %414
 G2 e"^3" _AGF"^2" EcE Dc_B | CB=A DcB =Edc"^1" ^F_ed | %416
!>(! G"^4"cB ABG"^4" ^F"^2"_E!>)!D!<(! GDC!<)! | %417
!>(! ADC"_2"[I:staff +1] B,C!>)!A,!p!"_3" B,A,G,!<(! CA,G, | %418
 DA,G, EA,!<)!G,"_cresc." ^F,"_1"G,A, B,"_1"CD |[I:staff -1] EC"^3"G"^1" A"^3"Bc dBG c=E!f!^F | %420
"^1" G2"^2" d g=f_e!>(! dc"^3"B AG^F!>)! | G!>(!ed PBA"^2"G!>)!"^5" GDB,[I:staff +1] G,2 :| %422
V:2
 z3 | z[I:staff +1] GG | ^FFF | x3 | x3 | x3 | x3 |[I:staff -1] z [Bd][Bd] | B z z | z [Ac][Ac] | %10
 A z z | z [GB][GB] | G z z | z [^FA][FA] | G GG | E/D/E/F/G/E/ | C/G/"^1"F/"^3"E/D/C/ | %17
 D/"^1"C/D/E/F/D/ | B,/"^4"F/E/D/C/"^2"B,/ | C/B,/C/D/E/"^2"C/ | %20
 A,/E/D/C/"_3"[I:staff +1]B,/"_4"A,/ | x3 |[I:staff -1] z [^FA][FA] | [G=Bd][GBd][GBd] | %24
 [G=Bd][Gc][Gc] | [A^c=e][Ace][Ace] | [A^c=e][Ad][Ad] | [=cd][cd][cd] | cBG | G3 | [^FA]2 [DG-] | %31
 [EG] ^F2 | G z z | x3 | x3 | x3 | x3 | x3 | x3 | x3 | x3 | x3 | GGA | AGG | GF=E | DF=E | D3- | %47
 D3 | z ED | CED | x3 | x3 | x3 | z BB | BAG | FAG | F3- | F3 | z GF | EGF | E3- | E3 | z dc | %63
 BAG | F2 F | [GB] A2 | B z z | z BB | AAA | x3 | x3 | x3 | x3 | z [df][df] | d z z | z [ce][ce] | %76
 c z z | z [Bd][Bd] | B z z | z [Ac][Ac] | B BB | G/F/G/A/B/G/ | E/B/A/G/F/E/ | F/E/F/G/A/"^2"F/ | %84
 D/"^3"A/G/F/"^2"E/D/ | E/D/E/F/G/E/ | C/G/F/E/"_3"D/C/ | x3 | z [FA][FA] | _AAA | _AGG | BBB | %92
 B=AA | ccc | (cB_A) | GFE | E>FD- | D/E/ C2 | .DFF | x3 | x3 | x3 | x3 | x3 | x3 | x3 | x3 | x3 | %108
 x3 | FFF | =E x2 | x3 | x3 | x3 | z AA | x3 | f z z | z =ee | =e z z | x3 | z [Bd][Bd] | %121
 B[A^c][Ac] | =E2 D- | D ^C2 | D z z | x3 | x3 | x3 | x3 | x3 | x3 | x3 | x3 | x3 | x3 | x3 | %136
 C[Gc][Gd] | [Gd][Gc][=Ac] | d/ x5/2 | x3 | x3 | x3 | x3 | x3 | x3 | x3 | x3 | z ee | f/ x5/2 | %149
 x3 | x3 | x3 | x3 | x3 | x3 | x3 | x3 | EDC | B,2 B, | [CE] D2 | E z z | x3 | x3 | x3 | x3 | x3 | %166
 x3 | x3 | x3 | x3 | x3 | x3 | x3 | x3 | x3 | x3 | x3 | x3 | x3 | x3 | x3 | x3 | x3 | x3 | x3 | %185
 x3 | x3 | z [Bd][Bd] | B z z | z [Ac][Ac] | A z z | z [GB][GB] | G z z | z [^FA][FA] | G GG | %195
 E/D/E/F/G/E/ | C/G/"^1"F/"^3"E/D/C/ | D/C/D/E/F/D/ | B,/F/E/D/C/B,/ | C/B,/C/D/E/"^2"C/ | %200
 A,/E/D/C/"_3"[I:staff +1]B,/A,/ | x3 |[I:staff -1] z [^FA][FA] | [G=Bd][GBd][GBd] | %204
 [G=Bd][Gc][Gc] | [A^c=e][Ace][Ace] | [A^c=e][Ad][Ad] | [=cd][cd][cd] | cBG | G3 | [^FA]2 [DG-] | %211
 [EG] ^F2 | G2 x |][M:4/4] x/ | G2 z2 A2 z2 | x8 | x8 | x8 | x8 | %219
 =B2- B/"^2"c/Pc/B/4c/4 d/"^2"e/Pe/d/4e/4"^1" f/"^3"_a/g/f/ | x8 | x8 | x8 | x8 | x4 d2 ^c2 | %225
 z/ =c/B/A/ G/A/B ^F3 z/ :: x/ | x8 | x8 | x8 | x6 A2 | x8 | x8 | x8 | %234
 z/"^1" f/"^3"e/d/ c/d/(e/"^2"B/) A2 _A2 | A/_A/G- G2 =A z x2 | x6 z/ B/A/G/ | A2 x2 G2 ^F2 | %238
 z/ =F/E/D/ C2 B,2 x3/2 :|[M:3/2] x | z CB,A, B,4 x4 | z EDC D3 x5 | B4 x8 | x12 | x12 | x12 | %246
 x12 | x12 | x4 d3 x5 | x12 | x12 | x12 | z dc"^2"_B"^1" c2 e2 dc"^2"BA | %253
 B6"^2" A"^1"G"^2" ^cd=e"^2"_B | A6 z2 ^c4 | z4 z2 [^FA]4 z :: x | z g^f=e f2 d2 d4- | d4 x8 | %259
 x8 =e4 | f4 x8 | x12 | x12 | x8 =B4 | c4 x8 | x12 | z cBA BGAB =E4 | z BAG"^4" A^FGA D4 | %268
 z A"^1"G"^2"^F G"^1"_E=FG P^C4 | D12- | D"^3"B,A,G, x8 | x4 G4 ^F4 | z4 z2 [B,D]4 z :| %273
[M:3/4] DC C4- | C2 C4- | C2 x4 | x6 | B,2 =B,4 | C2 C4- | C2 ^C4 | z"^2" ^C D4 :: =F2 F4- | %282
 F z D4 | d6 | G3 F E2 | =A2 ^F4 | B2 G4 | F2 F4- | F2 G4 | z2 _D4 | z2 ^C4 | z2 G,4 | %292
 x2 D3/2"^1"=E/4^F/4 PF3/2"^1"E/4"^4"F/4 | =B,2 B,4 | C2 C4 | B, z z ^C D2 | D2 D4 :| %297
[M:3/4] D2 C4- | C2 C4- | C2 x4 | x6 | B,2 =B,4 | C2 C4- | C2 ^C4 | z"^1" ^C !invertedturn!D4 :: %305
 =F2 F2 x2 | x2 D4 | x6 | G3 F E2 | =A2 ^F4 | B2 G4 | F2 F4- | F2 G4 | z2 _D4 | z2 ^C4 | x6 | %316
 x2 D3/2(3(D/4=E/4)^F/4 x2 | =B,2 B,4 | C2 C4 | B, z z ^C =C2 | CA,{A,} B,4 :|[M:2/2] x4 | x8 | %323
 x8 | x8 | x8 | x8 | x8 | x8 |1 x4 :|2 x4 |: x4 | x8 | x8 | x8 | x8 | x8 | x8 | x8 | x8 | x8 | x8 | %342
 x8 | x8 | x8 | x8 | x8 | x8 | x8 | x8 | x8 | x8 | x8 | x8 | x8 | x8 | x8 | x4 :|[K:G][M:2/2] x4 | %359
 x8 | x8 | x8 | x4 :: x4 | x8 | x8 | x8 | F4 x4 | x8 | x8 | x8 | x8 | x8 | x8 | x8 | x4 :| %376
[K:Bb][M:12/8] x | x12 | x12 | x12 | x12 | x12 | ^F"_1"=ED E"_1"GF G3- GAB | A3- AB"_1"c dcB cBA | %384
 B6 A6 | G6 F6 | E6 D3- DF=E | F2 =E D3- D"_2"^C=B, C3 | D3- D=EF E3- EFG | A3 G3 z3 z3 | x12 | %391
 x12 | x12 | x12 | x12 | x12 | x11 :: x | x12 | x12 | x12 | x12 | x12 | ED"^3"C DCB, C2 A B,2 C | %404
 D3- DC[I:staff +1]B, C3- CB,A, | G,3 A,B,C B,3 T=B,3 | x12 | x12 | x12 | x12 | x12 | x12 | x12 | %413
 x12 | x12 | x12 | x12 | x12 | x12 | x12 | x12 | x11 :| %422
V:3
 z3 | z3 | z"_2" D"_2"D |"^3""^1" [B,D]"_4"DD |"_3" D"_5""_1"A,A, |"_4" [D,G,]"_5"[B,,D,][B,,D,] | %6
"_3""_5" [^F,,A,,D,]2 z | z/"_1" A/G/=F/E/"_1"D/ |"_3" C/"_2"D/"_1"C/B,/A,/G,/ | %9
 F,/G/F/E/"_1"D/C/ | B,/C/B,/"_1"A,/"_2"G,/F,/ |"_4" E,/F/E/D/"_1"C/B,/ | %12
"_3" A,/"_2"B,/"_1"A,/G,/^F,/=E,/ |"_5" D,/"_2"_E,/"_1"D,/C,/B,,/A,,/ | %14
"_5" G,,/"_2"A,,/"_1"G,,/=F,,/E,,/D,,/ | C,,C,"_2"C, | F,,F,"_2"F, | B,"_4"B,,"_2"B,, | %18
 E,,E,"_2"E, | A,A,,"_2"A,, | D,, z z |"_3" B,/D/C/"^poco     a     poco"B,/"_1"A,/G,/ | %22
"_3" ^F,/"_2"G,/"_3"F,/"_4"=E,/"_1"D,/C,/ | =B,,/A,,/"_1"G,,/=F,,/=E,,/D,,/ | %24
 C,,"_1"G,/F,/=E,/"_1"D,/ | ^C,/=B,,/"_1"A,,/G,,/^F,,/=E,,/ | D,,"_1"=C/_B,/"_1"A,/G,/ | %27
 ^F,/=E,/"_1"D,/C,/B,,/"_1"A,,/ |"_2" G,,/^F,,/G,,/A,,/"_3"B,,/G,,/ | C,/B,,/C,/D,/"_3"E,/C,/ | %30
 D,/=E,/^F,/D,/G, |"_2" (C,D,D,,) | G,,2 z | z3 |[K:treble] z/"_3" (D/4=E/4F/"_2"D/^C/D/ | %35
 A,/D/F/"_5"D/"_2"^G/D/ |"_1" .A)"_2"A"_3"A |"_1" A"_2"G"_3"G |"_1" G"_2"F"_3"F | %39
 z/"_1" F/E/D/C/E/ |[K:bass]"_5" (^F,"_2"CE) | (^F,A,D) | z/"_4" (G,/4A,/4B,/"_3"G,/^F,/G,/ | %43
 D,/G,/B,/"_5"G,/"_2"^C/G,/) |"_3" D2 z |"_5" D,2 z | z"_5" (G,A, | =B,A,G,) |"_3" C2 z | %49
"_5" C,2 z |"^1" C3- | C3 |"_3" B, z z | F,/B,/D/"_4"B,/"_1"=E/"_5"B,/ |"_3" F2 z |"_5" F,2 z | %56
 z"_5" (B,C | DCB,) |"_3" E2 z |"_5" E,2 z | z"_4" (=A,B, | CB,A,) |"_1" D/C/B,/"_1"C/A,/B,/ | %63
 G,/"_1"B,/"_3"F,/B,/E,/B,/ | D,/B,/C,/B,/B,,/B,/ | (E,F,F,,) | B,,2 z | z3 | z"^3" FF | %69
 [DF]"_4"[DF][DF] | [CF][A,C][A,C] | [F,B,]"_4"[D,F,][D,F,] | [A,,C,F,]2 z | %73
[K:treble] z/"_2" c/B/"_1"A/G/F/ | E/"_2"F/E/"_1"D/"_3"C/B,/ | A,/"_1"B/A/G/"_1"F/E/ | %76
 D/E/"_1"D/C/B,/A,/ | G,/A/G/F/E/"_4"D/ |[K:bass] C/D/C/B,/"_1"A,/G,/ | F,/G,/F,/E,/"_1"D,/C,/ | %80
 B,,/C,/B,,/"_1"A,,/"_2"G,,/F,,/ | E,,E,"_2"E, | A,A,,"_2"A,, | D,,D,"_2"D, | G,G,,"_2"G,, | %85
 C,,C,"_2"C, | F,2 z |[I:staff -1] D/F/E/"^1"D/C/B,/ |"_4"[I:staff +1] A,/B,/"_1"A,/G,/F,/E,/ | %89
"_1" D,/C,/B,,/_A,,/"_1"G,,/"_3"F,,/ | E,,"_2"B,/_A,/"_1"G,/F,/ | =E,/D,/"_1"C,/B,,/=A,,/G,,/ | %92
 F,,"_2"E/"_1"D/C/B,/ |"_1" A,/G,/F,/E,/"_1"D,/C,/ | B,,/A,,/B,,/C,/D,/"_5"B,,/ | %95
"_3" E,/D,/E,/F,/G,/"_4"E,/ | F,/G,/A,/F,/"_1"B, |"_2" (E,F,F,,) | B,, z z | %99
"_2"[I:staff -1] D"_3"[I:staff +1]B,"_2"B, |"_1" (A,/G,/A,/"_2"F,/=E,/F,/ | %101
 C,/F,/A,/"_3"F,/=B,/F,/ | .C)G,G, | E,C,"_1"C, |"_2" (B,,/A,,/B,,/"_3"G,,/^F,,/G,,/ | %105
 D,,/G,,/B,,/"_5"G,,/"_2"^C,/G,,/) |"_1" (D,/"_2"=E,/"_1"=F,/"_2"D,/^C,/D,/ | %107
 A,,/D,/F,/"_5"D,/"_2"^G,/D,/ | .A,)"^1"[I:staff -1]AA |[I:staff +1] z"_2" DD | %110
"_3" ^C/=B,/"_2""_5"C/D/"_3""_4"B,/C/ |"_5""_3" A,"_4"[F,A,][F,A,] |"_3" [=E,A,][^C,E,][C,E,] | %113
 [A,,D,][F,,A,,][F,,A,,] | [^C,,=E,,A,,] z z |"^2"[I:staff -1] d/=e/d/c/B/"^1"A/ | %116
 G/A/G/F/"^1"=E/D/ |[I:staff +1] C/D/C/B,/"_1"A,/G,/ | F,/G,/F,/"_1"=E,/D,/C,/ | %119
 B,,/"_2"C,/B,,/"_1"A,,/G,,/F,,/ |"_4" =E,,/D,,/E,,/F,,/G,,/"_5"E,,/ | %121
"_2" A,,/G,,/A,,/=B,,/"_3"^C,/A,,/ |"_1" (B,"_5"^C,"_4"D,) |"_2" (G,"_1"A,"_3"A,,) | D,,2 z | z3 | %126
 z/"_3" (A,/4=B,/4C/"_2"A,/^G,/A,/ | E,/A,/C/"_5"A,/^D/A,/) |"_1" =E"_2"E"_3"E | %129
"_1" =E"_2"=D"_3"D |"_1" D"_2"C"_3"C | z/"_1" C/B,/A,/G,/B,/ |"_5" (^C,"_2"G,B,) | (^C,=E,A,) | %134
"_5" (D,"_4"F,"_3"_A, |"_2" =B,DG,) | z/"_4" (C,/4D,/4E,/"_3"C,/=B,,/C,/ | %137
 G,,/C,/E,/"_5"C,/"_2"^F,/C,/) |"_1" z"_2" B,"_3"A, |"^1""_5" G,"_2"B,"_3"A, |"_1" G,3- | G,3 | %142
"_3" z"_2" _A,"_1"G, |"^1" F,"_2"_A,"_3"G, |"^1" F,3- | F,3 |"_3" E, z z | %147
 B,,/E,/G,/"_4"E,/"_1"=A,/"_5"E,/ |"_3" z DC |"^1" B,"_2"D"_3"C |"_1" B,3- | B,3 |"_3" z CB, | %153
"^1" _A,"_2"C"_3"B, |"_1" _A,3- | A,3 |"_1" G,[I:staff -1]GF | %157
[I:staff +1] C,/"_1"E,/"_3"B,,/E,/_A,,/E,/ | G,,/E,/F,,/E,/E,,/E,/ |"_2" (_A,,B,,B,,,) | %160
 E,,[K:treble] z/"_2" _A/"_1"G/F/ | =E/F/G/"_2""^cresc."E/_D/"_1"E/ | %162
[K:bass]"_4" B,/C/_D/"_3"B,/"_5"G,/"_2"B,/ |"_5" =E,/"_3"F,/"_1"G,/"_2"E,/"_3"C,/"_1"E,/ | %164
 F,,[K:treble] z/"_1" G/F/_E/ | D/E/"_1"F/"_2"D/B,/"_1""^cresc."D/ | %166
[K:bass]"_3" _A,/B,/C/"_2"A,/F,/A,/ |"_5" D,/"_3"E,/"_1"F,/"_2"D,/"_3"B,,/"_1"D,/ | %168
 E,,[K:treble] z/"_2" _B/"_1"=A/G/ | ^F/G/A/"_2"F/"^cresc."_E/F/ | %170
[K:bass]"_5" C/"_3"D/E/"_1"C/"_3"A,/C/ |"_3" ^F,/G,/A,/"_2"F,/"_3"D,/F,/ |"_5" (G,,"_3"B,,"_1"E, | %173
 =F,,A,,D,) | (_E,,G,,C,) | .D,,.D, z | .D,,.D, z | .D,,.D, z | .D,,.D,.D, | %179
"_3" B,,/A,,/G,,/A,,/B,,/C,/ | D,/C,/D,/"_3"=E,/^F,/"_5"D,/ |"_2" G,/^F,/G,/A,/"_3"B,/C/ | %182
 D/C/D/"_3"=E/^F/D/ | G"_2""_5""_4" [B,D]"_1""_2""_3"[B,D] | [A,D][^F,A,][F,A,] | %185
 [D,G,][B,,D,][B,,D,] | [^F,,A,,D,]2 z | z/"_1" A/G/=F/_E/"_1"D/ |"_3" C/"_2"D/"_1"C/B,/A,/G,/ | %189
 F,/G/F/E/"_1"D/C/ | B,/C/B,/"_1"A,/"_3"G,/F,/ | E,/F/E/"_1"D/C/B,/ | %192
 A,/B,/"_1"A,/G,/^F,/"_1"=E,/ |"_3" D,/_E,/"_1"D,/C,/B,,/"_1"A,,/ | %194
"_3" G,,/A,,/"_1"G,,/=F,,/E,,/D,,/ | C,,C,C, | D,,F,F, | B,B,,B,, | E,,E,E, | A,A,,A,, | D,, z z | %201
 B,/D/C/B,/"_1"A,/G,/ | ^F,/"_1"G,/F,/=E,/"_1"D,/C,/ | =B,,/A,,/"_1"G,,/=F,,/=E,,/D,,/ | %204
 C,,"_1"G,/F,/=E,/"_1"D,/ | ^C,/=B,,/"_1"A,,/G,,/^F,,/=E,,/ | D,,"_1"=C/_B,/"_1"A,/G,/ | %207
 ^F,/=E,/"_1"D,/C,/B,,/"_1"A,,/ | G,,/^F,,/G,,/A,,/"_3"B,,/G,,/ | C,/B,,/C,/D,/"_3"E,/C,/ | %210
 D,/=E,/^F,/D,/G, |"_2" (C,D,D,,) | G,,2 z |][M:4/4] z/ | %214
 z/ G,,/B,,/D,/ G,/B,/"_1"A,/G,/ ^F,/G,/A,/E,/"_1" D,/C,/B,,/A,,/ | %215
 !>!B,,2- B,,/D,/"_4"C,/E,/"_4" !>!D,2- D,/=E,/^F,/"_5"D,/ | %216
"_2" z/"^3"[I:staff -1] G/=F/D/"^1" E2- E/"^3"F/E/C/"^1" D2- | %217
 D/E/"^1"D/B,/"^1" C2-"_4 5" C"^2"[I:staff +1]A,"^1"B,"^2"G, | %218
 ^F,"_1""_5"A,"_1""_2" D,2- D,D- D/C/"_1"=B,/A,/ | %219
 G,/D,/G,/"_2"=B,/ D/E/"_1"D/C/ B,/C/D/_A,/"_1" G,/F,/E,/D,/ | %220
 C,2- C,/C,/E,/G,/ C"_3""_2" D,=E,"_2""_5"^F, | %221
 z/"^1" G,/"^1"B,/C/ G/=F/_E/D/"^2" ^C/"^1"D/"^3"=E/"^1"B,/"^1" A,/"^1"G,/F,/"^1"=E,/ | %222
 D,2 z"_2""_1" A, G,2"^3""^2" =E,2 |"_1" D, x x2 x4 | %224
"^3" ^C,/D,/=E,/_B,,/"_1" A,,/G,,/F,,/=E,,/ (F,,G,,A,,)A,, | D,,2 z z/"^2" ^C/ D3 z/ :: z/ | %227
 D,2- D,/"_1"A,/"_2"B,/C/"_3" z"_4""_1" C2 =B, | %228
 z/ C/ x"_4" C,/=B,,/C,/D,/ =E,/D,/"_5"C,/"_2"F,/ G,/"_3"A,/_B,/C/ | A,/G,/F, B,F,"^1" E,E,,E,C, | %230
 F,/F,,/"_3"A,,/"_1"C,/"_3" E,/G,/F,/E,/"_1" D,/"_3"C,/B,,/E,/ F,F,, | %231
 B,,/"_1"B,/"_2"F,/"_1"D,/"_3" B,,/G,,/A,,/B,,/ C,/B,,/"_5"A,,/"_2"D,/ =E,/"_3"^F,/G,/A,/ | %232
 D,2- D,/"_1"G,/^F,/G,/"_4" z G,2 F, | G, x x2 x4 | %234
 E,,2"_1 5" (E,2- E,/)G/F/E/"_4" D/"_2"E/F/"_3"_A,/ | %235
"_1" G,/F,/E,/D,/"_5" C,/"_3"D,/E,/"_5"G,,/"_4" (^F,,G,,C,=A,,) | %236
 D, z/ E/ D/C/B,/A,/ B,/C/D/B,/"_1" A,/G,/^F,/=E,/ | %237
 ^F,/G,/A,/_E,/"_1" D,/C,/B,,/A,,/ (B,,C,D,D,,) | G,,2 z z/ ^F,/ G,3 z/ :|[M:3/2] z | %240
"_1" G,4- G,^F,G,"_3"D, E,C,D,E, | ^F,,4 z"_3" A,B,C"_3" ^F,G,A,D, | %242
"_1" (G,2 D,2 E,2 G,2 C,2 E,2) |"_1" D,3 C, B,,A,,B,,G,, D,2 D,,2 | z2 B,,2 D,2 G,2 F,2 E,2 | %245
"_5" D,"_3"F,G,A,"_3" B,A,B,C D2"_5" B,2 |"_2" EFED C2 D2 E2 C2 | F2 E2"_1" D2 CB, F2 F,2 | %248
"_1" B,2"_3" B,,"_1"A,,"_2" G,,^F,,G,,A,,"_3" B,,2 G,,2 |"_2" C,=B,,C,D, E,2 D,2 C,2 A,,2 | %250
 D,4 z2 z"_2" C B,CD"_4"^F, | G,"_1"A,"_2"B,D,"_3" E,=F,G,"_3"C, =B,,C,D,G,, | %252
 C,4[K:treble] z"_3" ABc"_3" ^FGAD |"_1" G=F=E"_4"D"_1" E"_3"^CDE[K:bass]"_4" A,=B,^C"_4"G, | %254
 z A,"_1""^dim."=B,"_2"^C D4"_2""_1" A,4 | D,6 D,4 z :: z | %257
 D,4[K:treble] z"_2" _e"_1"dc B"_1"AG^F |"_1" G2[K:bass]"_5" G,A, B,2 G,2 C2 B,2 | %259
 A,CD"_2"=E F2"_3" B,2"_1" C4 |"_2" F,G,_A,"_1"G, F,_E,D,"_2"E,"_4" =B,,2 C,2 | %261
 G,,2 G,F,"_4" E,2"_2" _A,2"_3" F,2"_1" G,2 | C,2 CB,"_4" _A,2"_2" _D2"_3" B,2"_1" C2 | %263
"_3" F,E,F,D, E,_A,"_1"G,F, G,2 G,,2 | C,,2"_2" E"_1"D C_B,=A,"_2"B, E,2"_1" G,2 | %265
 F,2 E,2 D,2 G,2 E,2 F,2 | B,,2 (F,2"_1""_3" !>!B,4-) B,DCB, |"_1" A,2 G,2 !>!^F,4- F,D,=E,F, | %268
"_1" G,2 D,2 G,,2 z2 z4 | z"_2" B,"_1"A,G, A,"_3"D,_E,"_3"C, =B,,C,D,G,, | %270
"_2" C,D,C,_B,, A,,2 B,,2"_1" C,"_2"E,"_3"D,"_5"C, | ^F,2 D,2 G,2"_3" C,2"_1" (D,2 D,,2) | %272
"_3""_5" z2 B,,2 D,2 G,4 z :|[M:3/4]"^3" G,2 x4 | z2"^1" A,4- | A,2"^1""^3""^1" A,4 | G,6- | %277
 G,2 G,4- |"^4" G,2"^2""^1" A,4- | A,2"_2""_1" _B,4 |"_3" z2"_1""_3""^1" A,4 ::"_4" B,6- | %282
 B,2 G,4- | G,2"_2""_1" (F,2 PE,)D, |"_4""_5" z2 (G,2 C2) |"_4" (^F,,A,,C,A,,PG,,"_5"F,,) | %286
 (G,,B,,_D,B,,P_A,,"_5"G,,) | (_A,,_C,=D,!>(!C,PB,,A,,) | E,2!>)!"_4" E,,4 |"_5" z2 =E,4 | %290
 z2 =E,4 |"_4""_5" z2 =E,4 | z2"^1" A,4 |"_5" (=F,,"_3"=B,,"_2"D,"_1"F,"_2"_A,"_5"D,) | %294
"_2" (E,"_4"=B,,"_1"C,"_2"_A,,"_3"^F,,G,,) | ^C,,2 z2"^1" =C2 |"_5""^2""_1" (CA,)"_1" B,4 :| %297
[M:3/4]"^3" G,2 x4 | z2"^1" A,4- | A,2"^1" A,4 | G,6- | G,2 G,4- |"^4" G,2 A,4- | A,2 _B,4 | %304
"_5""_3" z2"_1""_3" A,4 :: B,6- | B,2 G,4- | G,2"_1""_2" (F,2 PE,)D, |"_5""_4" z2 (G,2 C2) | %309
"_4" (^F,,A,, C,/"_2"E,/"_1"D,/C,/ B,,/"_1"A,,/"_3"G,,/"_2"A,,/4F,,/4) | %310
"_1""_5""__" G,,"_3"B,,"_2" _D,/"_4"C,/D,/=F,/ E,/D,/"_1"C,/4B,,/4_A,,/4B,,/8"_5"G,,/8 | %311
 _A,,/B,,/_C,/A,,/ F,/E,/4=D,/4F,/"_2"D,/"_1""^dim." C,"_3"PB,,/C,/4A,,/4 |"_1" E,2 E,,4 | %313
 z2 =E,4 | z2 =E,4 | z2"^1" G,4 | z2 A,4 | (=F,,"_3"=B,,"_2"D,F,"_2" _A,/"_1"G,/4F,/4E,/4F,/4D,/) | %318
"_2" E,/"_1"D,/"_3"C,/"_2"D,/4=B,,/4 C,/E,/"_1"D,/C,/_B,,/4_A,,/4"_2"B,,/4"_4"G,,/4"_2"A,,/4"_4"^F,,/4"_1"G,,/ | %319
 ^C,,2 z2 D,2 | z2 G,4 :|[M:2/2] (G,,2"_2" D,2 | G,2"_3" B,2 C2 D2) |"_2" (EFE"_1"D CB,A,"_1"C) | %324
 B,A,G,B,"_1" A,G,^F,D, |"_1" G,2 D,2 (B,,2 D,2 | G,2"_3" B,2 C2 D2) |"_2" EFE"_1"D CB,"_1"A,G, | %328
 (F,2 G,2 E,2"_1" F,2) |1"_3" B,,C,B,,A,, :|2"_5" B,,"_2"F,G,"_3"A, |:"_2" (B,2 C2 | %332
"_2" D2"_5" B,2 E2 C2) |"_1" DCB,A,"_1" G,2 F,2 | =E,2 C,2 D,2 E,2 | F,2 G,"_3"A, B,2"_1" G,2 | %336
"_2" =E,2 A,,2 =B,,2 ^C,2 |"_1" D,2 D,,2"_2" (D2 F=E |!<(! F2 DA,!<)!!f!!>(! =E2 ^CA,)!>)! | %339
"_1" D4"_4" G,2 A,2 | B,2 G,2"_1" (A,2 A,,2) | D,,"_1"D,"_3"_E,F, .G,2 .G,2 | %342
"_1""_2" !trill(!PTG,8- | G,4 G,2 G,2 | G,4 G,2 G,2 | G,4!p!"_1" G,"_2"G,"_1"G,"_2"G, | %346
 G,G,G,G, G,^F, G,2 |"_2" D,2 C,2 B,,2"_1" D,2 | ^F,,2 D,2 G,,2 D,2 | D,,2 (D,C, B,,2"_1" A,,2 | %350
 .G,,2 z2 .=F,,2 z2 | .E,,2) (G,F, E,2"_1" D,2 | .C,2 z2 .B,,2 z2 | .A,,2) (CB, A,2"_1" G,2 | %354
 .^F,2 z2 .=E,2) z2 | (D,2 ^F,2 G,2"_4" A,2 | B,2 C2 D2 D,2) | G,,4 :| %358
[K:G][M:2/2]"_5""_3" B,2 A,2 | B,2 C2 D2 C2 | B,2 C2 B,2 A,2 | B,2 C2 B,2 A,2 | G,4 :: B,2 A,2 | %364
 B,2 E2 D2"^1" C2 |"^3" B,2 A,B, C2 B,2 | C2 B,2 C2 CA, | C4 C2 D2 |"^2" E2"^1" D2 C2 B,2 | %369
 A,2 B,2 C2 D2 | C2 E2 D2"^1" C2 |"^3" B,2 C2 B,2 A,2 | B,2 C2 D2 C2 | B,2 z2 D2 z2 | %374
 B,2 z2 D2 z2 | !wedge!B,4 :|[K:Bb][M:12/8] z | z12 | z6 z3 z z"^4"[I:staff -1] G | %379
 (B"^1"AG =F"^1"=ED ^CE"_2"[I:staff +1]A, G,F,=E,) | (F,A,D =E,D^C D3-) D"^3"[I:staff -1]=EF | %381
"^4" =E3- E^FG AGF"^1" GFE |[I:staff +1] z3 z z"_3" D _E"_1"DC B,"_1"A,G, | %383
 ^F,A,"_2"D, C,B,,A,, B,,D,G, A,,G,^F, | G,"_2"B,A, B,DC D3- DA,D, | %385
 _E,G,=F, G,"_1"B,A, B,3- B,F,B,, | C,E,D, E,G,F, G,3- G,2"_2" ^C, | %387
 D,2!p! =C,!sfz! PB,,3 A,,3 z z"_3" A, | B,"_1"A,G, F,"_1"=E,D, ^C,E,"_2"A,, G,,F,,=E,, | %389
 F,,A,,D, =E,,D,^C, D,3- (D,"_2"F,=E, | F,A,G, A,3) (A,,^C,=B,, C,=E,D, | %391
 =E,3-) E,"_2"G,F,"_2" G,3- G,"_2"B,A, | B,"_1"G,F, =E,F,G, A,,2 z =B,,2 z | %393
 (^C,2 A,, =B,,2 C,) D,2 z =E,2 z |"_3" F,2 z G,3- G,F,"_5"=E,"_4" F,"_2""_1""__"^C"_1""_2""__"D | %395
"_5" G,^CD ^G,CD"_5" A,CD =EDC |"_1" D"_4"F,G, A,G,A, D,^F,A, D2 :: z | z12 | z6 z3 z z"_2" D,, | %400
 (^C,,D,,=E,,"_3" F,,G,,A,,"_3" B,,G,,D,"_3" =E,F,G,) | (F,D,A,, G,"_4"=B,,^C, D,3-) D,=C,_B,, | %402
 C,3- C,2"_1" D,"_2" _E,"_3"D,C, D,C,=B,, | C,2 A, _B,,2"_2" G, A,G,^F, G,=F,"_4"E, | %404
"_5" D,=E,^F,"_4" G,3-"_4""_1" G,A,B,"_5" ^F,3 | G,2"_4" E, C,2"_5" D,"_4""_2" G,6 | %406
 CG,A, _B,=F,G, A,2 F, G,2 A, | B,"_4"^F,G,"_1" A,"_4"=E,F,"_1" G,"_4"D,_E,"_1" =F,"_4"C,D, | %408
 E,"_5"=B,,"_3"C,"_1" D,"_4"A,,B,, C,D,"_3"E, F,G,"_2"_A, | G,=A,=B, C,D,E, F,G,_A, =B,,C,D, | %410
 E,2"_1" _A,"_4" D,2 G, C,2 z z z (_B, | =A,3) z z (G, =F,3) z z"_1" E, | %412
"_3" ^F,,G,,A,,"_3" B,,C,D,"_3" E,C,"_2"G, A,"_2"B,C | %413
 B,G,D, C"_3"=E,^F, G,"_2"D,"_4"B,,"_1" _A,"_3"C,D, | %414
"_1" E,"_3"B,,G,, F,"_3"=A,,=B,, C,2 z"_2" G,,2 z |"_4" =E,,2 z ^F,,2 z G,,2 z A,,2 z | %416
"_3" B,,2 z C,2 z D,2 z"_2" =E,2 z |"_1" (^F,2 D,, =E,,2 ^F,,) G,,2 z A,,2 z | %418
"_2" B,,2 z C,2 z"_3" D,=E,"_1"^F,"_5" G,,A,,B,, | C,D,_E, ^F,,G,,A,, B,,2"_1" E,"_5" A,,2"_3" D | %420
 _E"_1"DC B,"_1"A,G, ^F,A,"_2"D, C,B,,A,, | B,,G,C, D,C,D, G,,B,,D, G,2 :| %422
V:4
 x3 | x3 | x3 | z [G,B,][G,B,] | [^F,A,][D,F,][D,F,] | B,,G,,G,, | D,,2 x | x3 | x3 | x3 | x3 | %11
 x3 | x3 | x3 | x3 | x3 | x3 | x3 | x3 | x3 | x3 | x3 | x3 | x3 | x3 | x3 | x3 | x3 | x3 | x3 | %30
 x3 | x3 | x3 | x3 |[K:treble] x3 | x3 | x3 | x3 | x3 | x3 |[K:bass] x3 | x3 | x3 | x3 | x3 | x3 | %46
 x3 | x3 | x3 | x3 | z"_5" (F,G, | A,G,F,) | B,/C/D/"_2"B,/A,/B,/ | x3 | x3 | x3 | x3 | x3 | x3 | %59
 x3 | x3 | x3 | x3 | x3 | x3 | x3 | x3 | x3 | z3 | z B,B, | A,F,F, | D,B,,B,, | F,,2 x | %73
[K:treble] x3 | x3 | x3 | x3 | x3 |[K:bass] x3 | x3 | x3 | x3 | x3 | x3 | x3 | x3 | x3 | x3 | x3 | %89
 x3 | x3 | x3 | x3 | x3 | x3 | x3 | x3 | x3 | x3 | x3 | x3 | x3 | x3 | x3 | x3 | x3 | x3 | x3 | %108
 x3 | x3 | z A,A, | F,D,D, | ^C,A,,A,, | F,,D,,D,, | A,,, x2 | x3 | x3 | x3 | x3 | x3 | x3 | x3 | %122
 x3 | x3 | x3 | x3 | x3 | x3 | x3 | x3 | x3 | x3 | x3 | x3 | x3 | x3 | x3 | x3 | G,2 z | G,,2 z | %140
 z"_5" (C,D, | =E,D,C,) | F,2 z | F,,2 z | z"_4" (B,,C, | D,C,"_5"B,,) | E,/F,/G,/"_2"E,/D,/E,/ | %147
 x3 | B,2 z | B,,2 z | z"_5" (E,F, | G,F,E,) | _A,2 z | _A,,2 z | z"_4" (D,E, | F,E,D,) | %156
 G,/F,/E,/"_1"F,/D,/E,/ | x3 | x3 | x3 | x[K:treble] x2 | x3 |[K:bass] x3 | x3 | x[K:treble] x2 | %165
 x3 |[K:bass] x3 | x3 | x[K:treble] x2 | x3 |[K:bass] x3 | x3 | x3 | x3 | x3 | x3 | x3 | x3 | x3 | %179
 x3 | x3 | x3 | x3 | x G,G, | ^F,D,D, | B,,G,,G,, | D,,2 x | x3 | x3 | x3 | x3 | x3 | x3 | x3 | %194
 x3 | x3 | x3 | x3 | x3 | x3 | x3 | x3 | x3 | x3 | x3 | x3 | x3 | x3 | x3 | x3 | x3 | x3 | x3 |] %213
[M:4/4] x/ | x8 | x8 | G,3"_4" _E, =F,3 D, | E,3 (C, D,4-) | D,C, B,,G,, D,, x3 | x8 | %220
 x5 C,_B,,A,, | G,,8 | F,,2 z F, =E,D,^C,A,, | D,=C,B,,"_1"A,, G,,"_1"=F,,_E,,D,, | ^C,,2 x6 | %225
 x2 z2 z/"_4" ^F,/G,/A,/ D, x/ :: x/ | x4 =F,E,F,G, | C,/C/G,/"_3"E,/ x6 | x8 | x8 | x8 | %232
 x4 C,B,,C,D, | G,/G,,/B,,/D,/ G,/G,/=F,/E,/ D,/E,/"_1"F,/"_2"C,/ B,,/_A,,/"_1"G,,/"_4"F,,/ | x8 | %235
 x8 | x8 | x8 | x2 z2 z/ B,,/C,/D,/ G,, x/ :|[M:3/2] x | x12 | x12 | x12 | x12 | G,,6 x6 | x12 | %246
 x12 | x12 | x12 | x12 | x12 | x12 | x4[K:treble] x8 | x8[K:bass] x4 | F,6"_3" G,2 (A,2 A,,2) | %255
 z2 D,,4- D,,4 z :: x | x4[K:treble] x8 | x2[K:bass] x10 | x8 C2 C,2 | x12 | x12 | x12 | x12 | %264
 x12 | x12 | x12 | x12 | x12 | x12 | x12 | x12 | G,,6- G,,4 z :|[M:3/4] G,,6- | G,,6- | G,,6- | %276
 G,,6- | G,,6- | G,,6- | G,,6 | D,2 D,4 :: D,6- | D,2 =B,,4- | B,,6 | C,6 | x6 | x6 | x6 | x6 | %289
 =E,,6- | E,,6- | (E,,6 | ^F,,6) | x6 | x6 | x2 D,,4 | G,,6 :|[M:3/4] G,,6- | G,,6- | G,,6- | %300
 G,,6- | G,,6- | G,,6- | G,,6 | D,6 :: D,6- | D,2 =B,,4- | B,,6 | C,6 | x6 | x6 | x6 | x6 | %313
 =E,,6- | E,,6- | E,,6 | ^F,,6 | x6 | x6 | x2 D,,4 | G,,6 :|[M:2/2] x4 | x8 | x8 | x8 | x8 | x8 | %327
 x8 | x8 |1 x4 :|2 x4 |: x4 | x8 | x8 | x8 | x8 | x8 | x8 | x8 | x8 | x8 | x8 | x8 | x8 | x8 | x8 | %346
 x8 | x8 | x8 | x8 | x8 | x8 | x8 | x8 | x8 | x8 | x8 | x4 :|[K:G][M:2/2] G,4- | G,8- | G,8- | %361
 G,8- | G,4 :: G,4- | G,8- | G,8- | G,8- | G,8- | G,8- | G,8- | G,8- | G,8- | G,8- | G,8- | G,8- | %375
 G,4 :|[K:Bb][M:12/8] x | x12 | x12 | x12 | x12 | x12 | x12 | x12 | x12 | x12 | x12 | x12 | x12 | %389
 x12 | x12 | x12 | x12 | x12 | x12 | x12 | x11 :: x | x12 | x12 | x12 | x12 | x12 | x12 | x12 | %405
 x12 | x12 | x12 | x12 | x12 | x12 | x12 | x12 | x12 | x12 | x12 | x12 | x12 | x12 | x12 | x12 | %421
 x11 :| %422
V:5
 x3 | x3 | x3 | x3 | x3 | x3 | x3 | x3 | x3 | x3 | x3 | x3 | x3 | x3 | x3 | x3 | x3 | x3 | x3 | %19
 x3 | x3 | x3 | x3 | x3 | x3 | x3 | x3 | x3 | d2 d | x3 | x3 | x3 | x3 | x3 | x3 | x3 | x3 | x3 | %38
 x3 | x3 | x3 | x3 | x3 | x3 | x3 | x3 | x3 | x3 | x3 | x3 | x3 | x3 | x3 | x3 | x3 | x3 | x3 | %57
 x3 | x3 | x3 | x3 | x3 | x3 | x3 | x3 | x3 | x3 | x3 | x3 | x3 | x3 | x3 | x3 | x3 | x3 | x3 | %76
 x3 | x3 | x3 | x3 | x3 | x3 | x3 | x3 | x3 | x3 | x3 | x3 | x3 | B3- | x3 | c3- | x3 | f3- | f3 | %95
 B3 | !>!A2 F | G F2 | F x2 | x3 | x3 | x3 | x3 | x3 | x3 | x3 | x3 | x3 | x3 | x3 | x3 | x3 | x3 | %113
 x3 | x3 | x3 | x3 | x3 | x3 | x3 | x3 | x3 | x3 | x3 | x3 | x3 | x3 | x3 | x3 | x3 | x3 | x3 | %132
 x3 | x3 | x3 | x3 | x3 | x3 | x3 | x3 | x3 | x3 | x3 | x3 | x3 | x3 | x3 | x3 | x3 | x3 | x3 | %151
 x3 | x3 | x3 | x3 | x3 | x3 | x3 | x3 | x3 | x3 | x3 | x3 | x3 | x3 | x3 | x3 | x3 | x3 | x3 | %170
 x3 | x3 | x3 | x3 | x3 | x3 | x3 | x3 | x3 | x3 | x3 | x3 | x3 | x3 | x3 | x3 | x3 | x3 | x3 | %189
 x3 | x3 | x3 | x3 | x3 | x3 | x3 | x3 | x3 | x3 | x3 | x3 | x3 | x3 | x3 | x3 | x3 | x3 | x3 | %208
 d2 d | x3 | x3 | x3 | x3 |][M:4/4] x/ | x8 | x8 | x8 | x8 | x8 | d2 x6 | x8 | x8 | x8 | x8 | x8 | %225
 z2 G2 A3 x/ :: x/ | x8 | x8 | x8 | x8 | x8 | x8 | x8 | x8 | x8 | x8 | x8 | G4 x7/2 :|[M:3/2] x | %240
 x12 | x12 | x12 | x12 | x12 | x12 | x12 | x12 | x4 g3 x5 | x12 | x12 | x12 | x12 | x12 | x12 | %255
 x11 :: x | x12 | x12 | x12 | x12 | x12 | x12 | x12 | x12 | x12 | x12 | x12 | x12 | x12 | x12 | %271
 x12 | x11 :|[M:3/4] G2 x4 | x6 | x6 | x6 | x6 | x6 | x6 | x6 :: x2 [Bd]3 x | x2 F4 | x6 | x6 | %285
 c2 A4 | _d2 B4 | _c2 _A2 c2- | c_A B4 | z2{_A} G3 x | z2{F} =E3 x | z2{D} ^C3 x | x A- A2 x2 | %293
 D2 =F4 | E2 E4 | =E z x4 | x6 :|[M:3/4] G2 x4 | x6 | x6 | x6 | x6 | x6 | x6 | x6 :: x2 d2 x2 | %306
 x2 F4 | x6 | x6 | c2 A4 | _d2 B4 | _c2 _A2 Bc- | c_A{A} !invertedturn!B4 | z2{_A} G2 x2 | %314
 z2{F} =E2 x2 | x6 | x A- A2 x2 | D2 =F4 | E2 E4 | =E z x2 D2 | D2 D4 :|[M:2/2] x4 | x8 | x8 | x8 | %325
 x8 | x8 | x8 | x8 |1 x4 :|2 x4 |: x4 | x8 | x8 | x8 | x8 | x8 | x8 | x8 | x8 | x8 | x8 | x8 | x8 | %344
 x8 | x8 | x8 | x8 | x8 | x8 | x8 | x8 | x8 | x8 | x8 | x8 | x8 | x4 :|[K:G][M:2/2] x4 | x8 | x8 | %361
 x8 | x4 :: x4 | x8 | x8 | x8 | x8 | x8 | x8 | x8 | x8 | x8 | x8 | x8 | x4 :|[K:Bb][M:12/8] x | %377
 x12 | x12 | x12 | x12 | x12 | x12 | x12 | x12 | x12 | x12 | x12 | x12 | x12 | x12 | x12 | x12 | %393
 x12 | x12 | x12 | x11 :: x | x12 | x12 | x12 | x12 | x12 | x12 | x12 | x12 | x12 | x12 | x12 | %409
 x12 | x12 | x12 | x12 | x12 | x12 | x12 | x12 | x12 | x12 | x12 | x12 | x11 :| %422
V:6
 x3 | x3 | x3 | x3 | x3 | x3 | x3 | x3 | x3 | x3 | x3 | x3 | x3 | x3 | x3 | x3 | x3 | x3 | x3 | %19
 x3 | x3 | x3 | x3 | x3 | x3 | x3 | x3 | x3 | x3 | x3 | x3 | x3 | x3 | x3 |[K:treble] x3 | x3 | %36
 x3 | x3 | x3 | x3 |[K:bass] x3 | x3 | x3 | x3 | x3 | x3 | x3 | x3 | x3 | x3 | x3 | x3 | x3 | x3 | %54
 x3 | x3 | x3 | x3 | x3 | x3 | x3 | x3 | x3 | x3 | x3 | x3 | x3 | x3 | x3 | x3 | x3 | x3 | x3 | %73
[K:treble] x3 | x3 | x3 | x3 | x3 |[K:bass] x3 | x3 | x3 | x3 | x3 | x3 | x3 | x3 | x3 | x3 | x3 | %89
 x3 | x3 | x3 | x3 | x3 | x3 | x3 | x3 | x3 | x3 | x3 | x3 | x3 | x3 | x3 | x3 | x3 | x3 | x3 | %108
 x3 | x3 | x3 | x3 | x3 | x3 | x3 | x3 | x3 | x3 | x3 | x3 | x3 | x3 | x3 | x3 | x3 | x3 | x3 | %127
 x3 | x3 | x3 | x3 | x3 | x3 | x3 | x3 | x3 | x3 | x3 | x3 | x3 | x3 | x3 | x3 | x3 | x3 | x3 | %146
 x3 | x3 | x3 | x3 | x3 | x3 | x3 | x3 | x3 | x3 | x3 | x3 | x3 | x3 | x[K:treble] x2 | x3 | %162
[K:bass] x3 | x3 | x[K:treble] x2 | x3 |[K:bass] x3 | x3 | x[K:treble] x2 | x3 |[K:bass] x3 | x3 | %172
 x3 | x3 | x3 | x3 | x3 | x3 | x3 | x3 | x3 | x3 | x3 | x3 | x3 | x3 | x3 | x3 | x3 | x3 | x3 | %191
 x3 | x3 | x3 | x3 | x3 | x3 | x3 | x3 | x3 | x3 | x3 | x3 | x3 | x3 | x3 | x3 | x3 | x3 | x3 | %210
 x3 | x3 | x3 |][M:4/4] x/ | x8 | x8 | x8 | x8 | x8 | x8 | x8 | x8 | x8 | x8 | x8 | x15/2 :: x/ | %227
 x8 | x8 | x8 | x8 | x8 | x8 | x8 | x8 | x8 | x8 | x8 | x15/2 :|[M:3/2] x | x12 | x12 | x12 | x12 | %244
 x12 | x12 | x12 | x12 | x12 | x12 | x12 | x12 | x4[K:treble] x8 | x8[K:bass] x4 | x12 | %255
 z4 A,,2 x5 :: x | x4[K:treble] x8 | x2[K:bass] x10 | x12 | x12 | x12 | x12 | x12 | x12 | x12 | %266
 x12 | x12 | x12 | x12 | x12 | x12 | x11 :|[M:3/4] D,2 E,4- | E,6- | E,2 ^F,4 | D,6- | D,2 D,4 | %278
 C,D, _E,4- | E,2 =E,4 | z =E, ^F,4 :: =F,6- | F,2 x4 | x6 | x6 | x6 | x6 | x6 | x6 | x6 | x6 | %291
 x6 | x6 | x6 | x6 | x6 | z2 G,4 :|[M:3/4] D,2 E,4- | E,6- | E,2 ^F,4 | D,6- | D,2 D,4 | %302
 C,D, _E,4- | E,2 =E,4 | z"^4" =E, !invertedturn!^F,4 :: =F,6- | F,2 x4 | x6 | x6 | x6 | x6 | x6 | %312
 x6 | x6 | x6 | z2 =E,4 | x6 | x6 | x6 | x6 | x6 :|[M:2/2] x4 | x8 | x8 | x8 | x8 | x8 | x8 | x8 |1 %329
 x4 :|2 x4 |: x4 | x8 | x8 | x8 | x8 | x8 | x8 | x8 | x8 | x8 | x8 | x8 | x8 | x8 | x8 | x8 | x8 | %348
 x8 | x8 | x8 | x8 | x8 | x8 | x8 | x8 | x8 | x4 :|[K:G][M:2/2] x4 | x8 | x8 | x8 | x4 :: x4 | x8 | %365
 x8 | x8 | x8 | x8 | x8 | x8 | x8 | x8 | x8 | x8 | x4 :|[K:Bb][M:12/8] x | x12 | x12 | x12 | x12 | %381
 x12 | x12 | x12 | x12 | x12 | x12 | x12 | x12 | x12 | x12 | x12 | x12 | x12 | x12 | x12 | x11 :: %397
 x | x12 | x12 | x12 | x12 | x12 | x12 | x12 | x12 | x12 | x12 | x12 | x12 | x12 | x12 | x12 | %413
 x12 | x12 | x12 | x12 | x12 | x12 | x12 | x12 | x11 :| %422
V:7
 x3 | x3 | x3 | x3 | x3 | x3 | x3 | x3 | x3 | x3 | x3 | x3 | x3 | x3 | x3 | x3 | x3 | x3 | x3 | %19
 x3 | x3 | x3 | x3 | x3 | x3 | x3 | x3 | x3 | x3 | x3 | x3 | x3 | x3 | x3 |[K:treble] x3 | x3 | %36
 x3 | x3 | x3 | x3 |[K:bass] x3 | x3 | x3 | x3 | x3 | x3 | x3 | x3 | x3 | x3 | x3 | x3 | x3 | x3 | %54
 x3 | x3 | x3 | x3 | x3 | x3 | x3 | x3 | x3 | x3 | x3 | x3 | x3 | x3 | x3 | x3 | x3 | x3 | x3 | %73
[K:treble] x3 | x3 | x3 | x3 | x3 |[K:bass] x3 | x3 | x3 | x3 | x3 | x3 | x3 | x3 | x3 | x3 | x3 | %89
 x3 | x3 | x3 | x3 | x3 | x3 | x3 | x3 | x3 | x3 | x3 | x3 | x3 | x3 | x3 | x3 | x3 | x3 | x3 | %108
 x3 | x3 | x3 | x3 | x3 | x3 | x3 | x3 | x3 | x3 | x3 | x3 | x3 | x3 | x3 | x3 | x3 | x3 | x3 | %127
 x3 | x3 | x3 | x3 | x3 | x3 | x3 | x3 | x3 | x3 | x3 | x3 | x3 | x3 | x3 | x3 | x3 | x3 | x3 | %146
 x3 | x3 | x3 | x3 | x3 | x3 | x3 | x3 | x3 | x3 | x3 | x3 | x3 | x3 | x[K:treble] x2 | x3 | %162
[K:bass] x3 | x3 | x[K:treble] x2 | x3 |[K:bass] x3 | x3 | x[K:treble] x2 | x3 |[K:bass] x3 | x3 | %172
 x3 | x3 | x3 | x3 | x3 | x3 | x3 | x3 | x3 | x3 | x3 | x3 | x3 | x3 | x3 | x3 | x3 | x3 | x3 | %191
 x3 | x3 | x3 | x3 | x3 | x3 | x3 | x3 | x3 | x3 | x3 | x3 | x3 | x3 | x3 | x3 | x3 | x3 | x3 | %210
 x3 | x3 | x3 |][M:4/4] x/ | x8 | x8 | x8 | x8 | x8 | x8 | x8 | x8 | x8 | x8 | x8 | x15/2 :: x/ | %227
 x8 | x8 | x8 | x8 | x8 | x8 | x8 | x8 | x8 | x8 | x8 | x15/2 :|[M:3/2] x | x12 | x12 | x12 | x12 | %244
 x12 | x12 | x12 | x12 | x12 | x12 | x12 | x12 | x4[K:treble] x8 | x8[K:bass] x4 | x12 | x11 :: x | %257
 x4[K:treble] x8 | x2[K:bass] x10 | x12 | x12 | x12 | x12 | x12 | x12 | x12 | x12 | x12 | x12 | %269
 x12 | x12 | x12 | x11 :|[M:3/4] x6 | x6 | x2 C,4 | x6 | x6 | x6 | x6 | x6 :: x6 | x6 | x6 | x6 | %285
 x6 | x6 | x6 | x6 | x6 | x6 | x6 | x6 | x6 | x6 | x6 | x6 :|[M:3/4] x6 | x6 | x2 C,4 | x6 | x6 | %302
 x6 | x6 | x6 :: x6 | x6 | x6 | x6 | x6 | x6 | x6 | x6 | x6 | x6 | x6 | x6 | x6 | x6 | x6 | x6 :| %321
[M:2/2] x4 | x8 | x8 | x8 | x8 | x8 | x8 | x8 |1 x4 :|2 x4 |: x4 | x8 | x8 | x8 | x8 | x8 | x8 | %338
 x8 | x8 | x8 | x8 | x8 | x8 | x8 | x8 | x8 | x8 | x8 | x8 | x8 | x8 | x8 | x8 | x8 | x8 | x8 | %357
 x4 :|[K:G][M:2/2] x4 | x8 | x8 | x8 | x4 :: x4 | x8 | x8 | x8 | x8 | x8 | x8 | x8 | x8 | x8 | x8 | %374
 x8 | x4 :|[K:Bb][M:12/8] x | x12 | x12 | x12 | x12 | x12 | x12 | x12 | x12 | x12 | x12 | x12 | %388
 x12 | x12 | x12 | x12 | x12 | x12 | x12 | x12 | x11 :: x | x12 | x12 | x12 | x12 | x12 | x12 | %404
 x12 | x12 | x12 | x12 | x12 | x12 | x12 | x12 | x12 | x12 | x12 | x12 | x12 | x12 | x12 | x12 | %420
 x12 | x11 :| %422
V:8
 x3 | x3 | x3 | x3 | x3 | x3 | x3 | x3 | x3 | x3 | x3 | x3 | x3 | x3 | x3 | x3 | x3 | x3 | x3 | %19
 x3 | x3 | x3 | x3 | x3 | x3 | x3 | x3 | x3 | x3 | x3 | x3 | x3 | x3 | x3 | x3 | x3 | x3 | x3 | %38
 x3 | x3 | x3 | x3 | x3 | x3 | x3 | x3 | x3 | x3 | x3 | x3 | x3 | x3 | x3 | x3 | x3 | x3 | x3 | %57
 x3 | x3 | x3 | x3 | x3 | x3 | x3 | x3 | x3 | x3 | x3 | x3 | x3 | x3 | x3 | x3 | x3 | x3 | x3 | %76
 x3 | x3 | x3 | x3 | x3 | x3 | x3 | x3 | x3 | x3 | x3 | x3 | x3 | x3 | x3 | x3 | x3 | x3 | x3 | %95
 x3 | x3 | x3 | x3 | x3 | x3 | x3 | x3 | x3 | x3 | x3 | x3 | x3 | x3 | x3 | x3 | x3 | x3 | x3 | %114
 x3 | x3 | x3 | x3 | x3 | x3 | x3 | x3 | x3 | x3 | x3 | x3 | x3 | x3 | x3 | x3 | x3 | x3 | x3 | %133
 x3 | x3 | x3 | x3 | x3 | x3 | x3 | x3 | x3 | x3 | x3 | x3 | x3 | x3 | x3 | x3 | x3 | x3 | x3 | %152
 x3 | x3 | x3 | x3 | x3 | x3 | x3 | x3 | x3 | x3 | x3 | x3 | x3 | x3 | x3 | x3 | x3 | x3 | x3 | %171
 x3 | x3 | x3 | x3 | x3 | x3 | x3 | x3 | x3 | x3 | x3 | x3 | x3 | x3 | x3 | x3 | x3 | x3 | x3 | %190
 x3 | x3 | x3 | x3 | x3 | x3 | x3 | x3 | x3 | x3 | x3 | x3 | x3 | x3 | x3 | x3 | x3 | x3 | x3 | %209
 x3 | x3 | x3 | x3 |][M:4/4] x/ | x8 | x8 | x8 | x8 | x8 | x8 | x8 | x8 | x8 | x8 | x8 | x15/2 :: %226
 x/ | x8 | x8 | x8 | x8 | x8 | x8 | x8 | x8 | x8 | x8 | x8 | x15/2 :|[M:3/2] x | x12 | x12 | x12 | %243
 x12 | x12 | x12 | x12 | x12 | x12 | x12 | x12 | x12 | x12 | x12 | x12 | x11 :: x | x12 | x12 | %259
 x12 | x12 | x12 | x12 | x12 | x12 | x12 | x12 | x12 | x12 | x12 | x12 | x12 | x11 :|[M:3/4] x6 | %274
 x6 | x6 | x6 | x6 | x6 | x6 | x6 :: x6 | x6 | x6 | x6 | x6 | x6 | x6 | x6 | x6 | x6 | x6 | x6 | %293
 x6 | x6 | x6 | x6 :|[M:3/4] x6 | x6 | x6 | x6 | x6 | x6 | x6 | x6 :: x2 B2 x2 | x6 | x6 | x6 | %309
 x6 | x6 | x6 | x6 | x6 | x3/2 G/- x4 | x6 | x6 | x6 | x6 | x6 | x6 :|[M:2/2] x4 | x8 | x8 | x8 | %325
 x8 | x8 | x8 | x8 |1 x4 :|2 x4 |: x4 | x8 | x8 | x8 | x8 | x8 | x8 | x8 | x8 | x8 | x8 | x8 | x8 | %344
 x8 | x8 | x8 | x8 | x8 | x8 | x8 | x8 | x8 | x8 | x8 | x8 | x8 | x4 :|[K:G][M:2/2] x4 | x8 | x8 | %361
 x8 | x4 :: x4 | x8 | x8 | x8 | x8 | x8 | x8 | x8 | x8 | x8 | x8 | x8 | x4 :|[K:Bb][M:12/8] x | %377
 x12 | x12 | x12 | x12 | x12 | x12 | x12 | x12 | x12 | x12 | x12 | x12 | x12 | x12 | x12 | x12 | %393
 x12 | x12 | x12 | x11 :: x | x12 | x12 | x12 | x12 | x12 | x12 | x12 | x12 | x12 | x12 | x12 | %409
 x12 | x12 | x12 | x12 | x12 | x12 | x12 | x12 | x12 | x12 | x12 | x12 | x11 :| %422

